images/logo.svg

<svg width="75" height="30" viewBox="0 0 75 30" fill="none" xmlns="http://www.w3.org/2000/svg">
<path d="M60.1313 30C68.3429 30 75 23.2841 75 15C75 6.71586 68.3429 0 60.1313 0C51.9196 0 45.2625 6.71586 45.2625 15C45.2625 23.2841 51.9196 30 60.1313 30ZM40.6481 21.7241C41.056 21.7241 41.4472 21.5607 41.7357 21.2696C42.0242 20.9786 42.1862 20.584 42.1862 20.1724C42.1862 19.7609 42.0242 19.3662 41.7357 19.0752C41.4472 18.7842 41.056 18.6207 40.6481 18.6207C40.2401 18.6207 39.8489 18.7842 39.5604 19.0752C39.272 19.3662 39.1099 19.7609 39.1099 20.1724C39.1099 20.584 39.272 20.9786 39.5604 21.2696C39.8489 21.5607 40.2401 21.7241 40.6481 21.7241ZM33.8013 8.61H37.3164V21.8255H34.0751L28.7203 14.5779L28.7633 21.7221H25.2389V8.52414H28.4906L33.8023 16.1928L33.8013 8.61ZM17.943 22.0479C14.556 22.0479 12.2231 19.8072 12.2231 16.5703V8.61H15.7475V16.5786C15.7475 17.91 16.6581 18.8286 17.943 18.8286C19.2371 18.8286 20.1477 17.91 20.1477 16.5869V8.61H23.6721V16.5703C23.6721 19.8083 21.3392 22.049 17.943 22.049V22.0479ZM6.78425 15.0341L11.8827 21.7231H7.45488L3.66079 16.381H3.52543V21.7221H0V8.61H3.52441V14.0721H3.61669L7.20057 8.61H11.2695L6.78425 15.0341Z" fill="#0C2F75"/>
<path d="M72.1376 21.719V18.5503H67.1232L72.5201 8.6069H62.3406V11.7672H66.7407L61.3183 21.719H72.1376ZM60.5358 16.5672V8.6069H57.0114V16.5838C57.0114 17.9069 56.1009 18.8255 54.8068 18.8255C53.5219 18.8255 52.6113 17.9069 52.6113 16.5755V8.6069H49.0869V16.5672C49.0869 19.8052 51.4187 22.0459 54.8068 22.0459C58.203 22.0459 60.5358 19.8041 60.5358 16.5672Z" fill="white"/>
</svg>

<svg width="75" height="30" fill="none" xmlns="http://www.w3.org/2000/svg"><path d="M60.131 30C68.343 30 75 23.284 75 15c0-8.284-6.657-15-14.869-15-8.211 0-14.868 6.716-14.868 15 0 8.284 6.657 15 14.868 15Zm-19.483-8.276c.408 0 .8-.163 1.088-.454a1.558 1.558 0 0 0 0-2.195 1.531 1.531 0 0 0-2.176 0 1.559 1.559 0 0 0 0 2.195c.289.29.68.454 1.088.454ZM33.801 8.61h3.515v13.216h-3.24l-5.356-7.248.043 7.144H25.24V8.524h3.252l5.311 7.669V8.61ZM17.943 22.048c-3.387 0-5.72-2.24-5.72-5.478V8.61h3.524v7.969c0 1.331.911 2.25 2.196 2.25 1.294 0 2.205-.919 2.205-2.242V8.61h3.524v7.96c0 3.238-2.333 5.479-5.729 5.479v-.001ZM6.784 15.034l5.099 6.69H7.455L3.66 16.38h-.136v5.341H0V8.61h3.524v5.462h.093L7.2 8.61h4.069l-4.486 6.424Z" fill="#0C2F75"/><path d="M72.138 21.719V18.55h-5.015l5.397-9.943H62.34v3.16h4.4l-5.422 9.952h10.82Zm-11.602-5.152v-7.96H57.01v7.977c0 1.323-.91 2.242-2.204 2.242-1.285 0-2.196-.92-2.196-2.25v-7.97h-3.524v7.961c0 3.238 2.332 5.479 5.72 5.479 3.396 0 5.729-2.242 5.729-5.479Z" fill="#fff"/></svg>
